src/topics/icons/vagrant.svg

<svg height="313" preserveAspectRatio="xMidYMid" viewBox="0 0 256 313" width="256" xmlns="http://www.w3.org/2000/svg"><path d="m255.28 19.1658667c-1.842133-1.5104-16.318933-9.27360003-16.318933-9.27360003l-15.447467 8.97493333-.008533-.0053333 15.447466-8.9738667-15.442133-9.2032-.005333 18.1770667-16.110934-9.01760003s-13.178666 7.70346663-19.5776 11.39626663c-8.0544 4.6474667-27.809066 16.4096-27.809066 16.4096v17.3696l-16.274134 42.4v23.0229337l-11.421866 6.666666-4.545067 11.889067-32.0277333-83.0848.0053333-18.2208-63.8293333-37.02826667-31.88373337 18.45653337-.03093333-.0074667v18.7765333l19.8837333 47.8912 12.0832 7.1168.0106667 21.8399997 47.9008 116.343467 47.872 27.396267v.157866l47.809067-27.666133 79.893333-193.4613333z" fill="#3185b8"/><path d="m127.7856 258.498133-47.9072-27.416533-47.9008-116.343467-.0106667-21.8399997-12.0832-7.1168-19.8837333-47.8912v-18.7765333l15.7333333 9.1733333v18.4842667l16.2613334 9.4368.0021333-18.592 31.7717333 18.3829333 1.5317334 18.1984 46.1888003 119.8911997 32.0992 18.698667v36.667733l-15.847467-9.3216z" fill="#3185b8"/><path d="m95.7386667 55.9136 32.0277333 83.0848-.066133 45.7664-16.2336 9.233067-46.1664003-119.933867-1.5317334-18.0650667 31.9754667-18.3061333z" fill="#61a5ce"/><path d="m15.7333333 28.2869333v18.4842667l16.2634667-9.1552z" fill="#61a5ce"/><path d="m31.9946667 56.208.0021333-18.592-16.2634667 9.1552z" fill="#eae9e6"/><path d="m127.700267 184.7648 16.010666 9.1616 17.826134-44.757333 13.728 8.168533v-42.894933l4.379733-10.356267 11.688533 6.8448v-18.1333333l-15.911466-9.2448 16-9.2885334-15.733334-9.0666666-.0416-18.4298667-15.639466-9.1178667v17.3696l-16.274134 42.4v23.0229337l-11.421866 6.666666-4.545067 11.889067z" fill="#3185b8"/><path d="m127.480533 203.5008 16.107734 9.2864-.08 36.676267 32.0512-18.493867 79.893333-193.4613333-.1728-18.3424-47.885867 27.6021333v36.8245333l-16.0608 9.2053334v18.1333333l-11.688533-6.8448-4.379733 10.356267v42.805333l-22.244267 13.080533-9.309867 23.597867z" fill="#61a5ce"/><path d="m63.6672 74.3978667 16.0661333-9.3333334v18.4661334z" fill="#eae9e6"/><path d="m79.7333333 83.5306667 15.9328 9.0005333v-18.1333333l-15.9328-9.3333334z" fill="#3185b8"/><path d="m47.8453333 120.196267v18.599466l16.0864-9.256533z" fill="#61a5ce"/><path d="m79.9882667 138.882133-16.1429334 9.399467-16-9.485867 16.0864-9.256533z" fill="#eae9e6"/><path d="m79.7706667 194.133333v18.757334l16.1696-9.349334z" fill="#61a5ce"/><path d="m111.522133 230.8832 16.286934 9.466667.058666-19.051734z" fill="#eae9e6"/><path d="m127.7504 258.635733.058667-18.285866 15.6992 9.1136z" fill="#61a5ce"/><path d="m127.700267 184.7648-16.2336 9.233067 16.013866 9.502933 16.2304-9.5744z" fill="#eae9e6"/><path d="m207.394133 83.5925333v-36.8245333l-15.853866-9.0250667v18.3466667l-15.851734 9.1082667z" fill="#3185b8"/><path d="m175.421867 83.5530667 16-9.2885334 15.972266 9.328-16.0608 9.2053334z" fill="#eae9e6"/><path d="m175.688533 65.1978667 15.851734-9.1082667v-18.3466667l-15.893334 9.0250667z" fill="#61a5ce"/><path d="m223.505067 18.8629333.005333-18.1781333 15.442133 9.2032z" fill="#3185b8"/><path d="m255.28 19.1658667-47.885867 27.6021333-15.853866-9.0250667-15.893334 9.0250667-15.639466-9.1178667s19.754666-11.7621333 27.809066-16.4096c6.398934-3.6928 19.5776-11.39626663 19.5776-11.39626663l16.119467 9.02293333 15.447467-8.97493333s14.4768 7.76320003 16.318933 9.27360003c-4.356267 2.5450666 0 0 0 0" fill="#eae9e6"/><path d="m95.744 37.6928-31.9754667 18.3061333-63.73759997-36.8778666 31.88373337-18.45653337z" fill="#eae9e6"/><path d="m239.204267 46.3477333v-17.9157333l-15.579734 8.9898667z" fill="#3185b8"/><path d="m191.979733 129.6384 15.502934-8.893867v17.837867z" fill="#3185b8"/><path d="m159.582933 203.378133v18.484267l16.148267-9.341867z" fill="#eae9e6"/><path d="m175.831467 212.520533-.199467-18.334933-16.049067 9.192533z" fill="#3185b8"/><path d="m17.4165333 311.466667h6.9290667l13.1413333-39.7824h-4.9578666l-11.648 35.3024-11.64800003-35.3024h-4.95786667zm39.9018667-39.7824h-6.9290667l-13.44 39.7824h5.1968l3.2256-9.557334h16.9045334l3.2853333 9.557334h5.1968zm3.6437333 25.745066h-14.2165333l7.1082667-22.0416zm20.3690667-14.336c0-5.376 1.9712-7.3472 8.5418667-7.3472 3.2853333 0 6.8693333.3584 10.6922663 1.015467l.597334-4.420267c-3.703467-.836266-7.645867-1.2544-11.050667-1.2544-9.9157333 0-13.9178667 3.703467-13.9178667 11.767467v17.501867c0 7.3472 3.1061334 11.707733 13.2608 11.707733 4.1216 0 8.7210667-.597333 12.6037337-1.732267v-17.143466h-4.957867v13.499733c-2.7477333.5376-5.376.7168-7.4666667.7168-6.8096 0-8.3029333-2.269867-8.3029333-7.3472zm55.074133 28.373334h5.9136l-10.333866-14.993067c4.599466-1.314133 6.331733-4.539733 6.331733-9.258667v-5.7344c0-6.0928-2.986667-9.796266-11.528533-9.796266h-15.172267v39.7824h5.137067v-14.395734h9.736533zm-3.2256-29.9264v5.7344c0 3.882666-1.672533 5.256533-6.570666 5.256533h-9.856v-16.247467h9.856c4.898133 0 6.570666 1.314134 6.570666 5.256534zm33.629867-9.856h-6.929067l-13.44 39.7824h5.1968l3.2256-9.557334h16.904534l3.285333 9.557334h5.1968zm3.643733 25.745066h-14.216533l7.108267-22.0416zm38.766934 14.037334h7.048533v-39.7824h-4.898133v34.048l-17.322667-34.048h-7.048533v39.7824h4.898133v-33.8688zm25.207466 0h5.137067v-35.182934h11.886933v-4.599466h-28.910933v4.599466h11.886933z" fill="#3285b7"/></svg>

<?xml version="1.0" encoding="UTF-8" standalone="no"?>
<svg width="256px" height="313px" viewBox="0 0 256 313" version="1.1" xmlns="http://www.w3.org/2000/svg" xmlns:xlink="http://www.w3.org/1999/xlink" preserveAspectRatio="xMidYMid">
	<g>
		<g>
			<path d="M255.28,19.1658667 C253.437867,17.6554667 238.961067,9.89226667 238.961067,9.89226667 L223.5136,18.8672 L223.505067,18.8618667 L238.952533,9.888 L223.5104,0.6848 L223.505067,18.8618667 L207.394133,9.84426667 C207.394133,9.84426667 194.215467,17.5477333 187.816533,21.2405333 C179.762133,25.888 160.007467,37.6501333 160.007467,37.6501333 L160.007467,55.0197333 L143.733333,97.4197333 L143.733333,120.442667 L132.311467,127.109333 L127.7664,138.9984 L95.7386667,55.9136 L95.744,37.6928 L31.9146667,0.664533333 L0.0309333333,19.1210667 L0,19.1136 L0,37.8901333 L19.8837333,85.7813333 L31.9669333,92.8981333 L31.9776,114.738133 L79.8784,231.0816 L127.7504,258.477867 L127.7504,258.635733 L175.559467,230.9696 L255.4528,37.5082667 L255.28,19.1658667" fill="#3185B8"></path>
			<path d="M127.7856,258.498133 L79.8784,231.0816 L31.9776,114.738133 L31.9669333,92.8981333 L19.8837333,85.7813333 L0,37.8901333 L0,19.1136 L15.7333333,28.2869333 L15.7333333,46.7712 L31.9946667,56.208 L31.9968,37.616 L63.7685333,55.9989333 L65.3002667,74.1973333 L111.489067,194.088533 L143.588267,212.7872 L143.588267,249.454933 L127.7408,240.133333 L127.7856,258.498133" fill="#3185B8"></path>
			<path d="M95.7386667,55.9136 L127.7664,138.9984 L127.700267,184.7648 L111.466667,193.997867 L65.3002667,74.064 L63.7685333,55.9989333 L95.744,37.6928 L95.7386667,55.9136" fill="#61A5CE"></path>
			<path d="M15.7333333,28.2869333 L15.7333333,46.7712 L31.9968,37.616 L15.7333333,28.2869333" fill="#61A5CE"></path>
			<path d="M31.9946667,56.208 L31.9968,37.616 L15.7333333,46.7712 L31.9946667,56.208" fill="#EAE9E6"></path>
			<path d="M127.700267,184.7648 L143.710933,193.9264 L161.537067,149.169067 L175.265067,157.3376 L175.265067,114.442667 L179.6448,104.0864 L191.333333,110.9312 L191.333333,92.7978667 L175.421867,83.5530667 L191.421867,74.2645333 L175.688533,65.1978667 L175.646933,46.768 L160.007467,37.6501333 L160.007467,55.0197333 L143.733333,97.4197333 L143.733333,120.442667 L132.311467,127.109333 L127.7664,138.9984 L127.700267,184.7648" fill="#3185B8"></path>
			<path d="M127.480533,203.5008 L143.588267,212.7872 L143.508267,249.463467 L175.559467,230.9696 L255.4528,37.5082667 L255.28,19.1658667 L207.394133,46.768 L207.394133,83.5925333 L191.333333,92.7978667 L191.333333,110.9312 L179.6448,104.0864 L175.265067,114.442667 L175.265067,157.248 L153.0208,170.328533 L143.710933,193.9264 L127.480533,203.5008" fill="#61A5CE"></path>
			<path d="M63.6672,74.3978667 L79.7333333,65.0645333 L79.7333333,83.5306667 L63.6672,74.3978667" fill="#EAE9E6"></path>
			<path d="M79.7333333,83.5306667 L95.6661333,92.5312 L95.6661333,74.3978667 L79.7333333,65.0645333 L79.7333333,83.5306667" fill="#3185B8"></path>
			<path d="M47.8453333,120.196267 L47.8453333,138.795733 L63.9317333,129.5392 L47.8453333,120.196267" fill="#61A5CE"></path>
			<path d="M79.9882667,138.882133 L63.8453333,148.2816 L47.8453333,138.795733 L63.9317333,129.5392 L79.9882667,138.882133" fill="#EAE9E6"></path>
			<path d="M79.7706667,194.133333 L79.7706667,212.890667 L95.9402667,203.541333 L79.7706667,194.133333" fill="#61A5CE"></path>
			<path d="M111.522133,230.8832 L127.809067,240.349867 L127.867733,221.298133 L111.522133,230.8832" fill="#EAE9E6"></path>
			<path d="M127.7504,258.635733 L127.809067,240.349867 L143.508267,249.463467 L127.7504,258.635733" fill="#61A5CE"></path>
			<path d="M127.700267,184.7648 L111.466667,193.997867 L127.480533,203.5008 L143.710933,193.9264 L127.700267,184.7648" fill="#EAE9E6"></path>
			<path d="M207.394133,83.5925333 L207.394133,46.768 L191.540267,37.7429333 L191.540267,56.0896 L175.688533,65.1978667 L207.394133,83.5925333" fill="#3185B8"></path>
			<path d="M175.421867,83.5530667 L191.421867,74.2645333 L207.394133,83.5925333 L191.333333,92.7978667 L175.421867,83.5530667" fill="#EAE9E6"></path>
			<path d="M175.688533,65.1978667 L191.540267,56.0896 L191.540267,37.7429333 L175.646933,46.768 L175.688533,65.1978667" fill="#61A5CE"></path>
			<path d="M223.505067,18.8629333 L223.5104,0.6848 L238.952533,9.888 L223.505067,18.8629333" fill="#3185B8"></path>
			<path d="M255.28,19.1658667 L207.394133,46.768 L191.540267,37.7429333 L175.646933,46.768 L160.007467,37.6501333 C160.007467,37.6501333 179.762133,25.888 187.816533,21.2405333 C194.215467,17.5477333 207.394133,9.84426667 207.394133,9.84426667 L223.5136,18.8672 L238.961067,9.89226667 C238.961067,9.89226667 253.437867,17.6554667 255.28,19.1658667 C250.923733,21.7109333 255.28,19.1658667 255.28,19.1658667" fill="#EAE9E6"></path>
			<path d="M95.744,37.6928 L63.7685333,55.9989333 L0.0309333333,19.1210667 L31.9146667,0.664533333 L95.744,37.6928" fill="#EAE9E6"></path>
			<path d="M239.204267,46.3477333 L239.204267,28.432 L223.624533,37.4218667 L239.204267,46.3477333" fill="#3185B8"></path>
			<path d="M191.979733,129.6384 L207.482667,120.744533 L207.482667,138.5824 L191.979733,129.6384" fill="#3185B8"></path>
			<path d="M159.582933,203.378133 L159.582933,221.8624 L175.7312,212.520533 L159.582933,203.378133" fill="#EAE9E6"></path>
			<path d="M175.831467,212.520533 L175.632,194.1856 L159.582933,203.378133 L175.831467,212.520533" fill="#3185B8"></path>
		</g>
		<path d="M17.4165333,311.466667 L24.3456,311.466667 L37.4869333,271.684267 L32.5290667,271.684267 L20.8810667,306.986667 L9.23306667,271.684267 L4.2752,271.684267 L17.4165333,311.466667 Z M57.3184,271.684267 L50.3893333,271.684267 L36.9493333,311.466667 L42.1461333,311.466667 L45.3717333,301.909333 L62.2762667,301.909333 L65.5616,311.466667 L70.7584,311.466667 L57.3184,271.684267 Z M60.9621333,297.429333 L46.7456,297.429333 L53.8538667,275.387733 L60.9621333,297.429333 Z M81.3312,283.093333 C81.3312,277.717333 83.3024,275.746133 89.8730667,275.746133 C93.1584,275.746133 96.7424,276.104533 100.565333,276.7616 L101.162667,272.341333 C97.4592,271.505067 93.5168,271.086933 90.112,271.086933 C80.1962667,271.086933 76.1941333,274.7904 76.1941333,282.8544 L76.1941333,300.356267 C76.1941333,307.703467 79.3002667,312.064 89.4549333,312.064 C93.5765333,312.064 98.176,311.466667 102.058667,310.331733 L102.058667,293.188267 L97.1008,293.188267 L97.1008,306.688 C94.3530667,307.2256 91.7248,307.4048 89.6341333,307.4048 C82.8245333,307.4048 81.3312,305.134933 81.3312,300.0576 L81.3312,283.093333 Z M136.405333,311.466667 L142.318933,311.466667 L131.985067,296.4736 C136.584533,295.159467 138.3168,291.933867 138.3168,287.214933 L138.3168,281.480533 C138.3168,275.387733 135.330133,271.684267 126.788267,271.684267 L111.616,271.684267 L111.616,311.466667 L116.753067,311.466667 L116.753067,297.070933 L126.4896,297.070933 L136.405333,311.466667 Z M133.179733,281.540267 L133.179733,287.274667 C133.179733,291.157333 131.5072,292.5312 126.609067,292.5312 L116.753067,292.5312 L116.753067,276.283733 L126.609067,276.283733 C131.5072,276.283733 133.179733,277.597867 133.179733,281.540267 L133.179733,281.540267 Z M166.8096,271.684267 L159.880533,271.684267 L146.440533,311.466667 L151.637333,311.466667 L154.862933,301.909333 L171.767467,301.909333 L175.0528,311.466667 L180.2496,311.466667 L166.8096,271.684267 Z M170.453333,297.429333 L156.2368,297.429333 L163.345067,275.387733 L170.453333,297.429333 Z M209.220267,311.466667 L216.2688,311.466667 L216.2688,271.684267 L211.370667,271.684267 L211.370667,305.732267 L194.048,271.684267 L186.999467,271.684267 L186.999467,311.466667 L191.8976,311.466667 L191.8976,277.597867 L209.220267,311.466667 Z M234.427733,311.466667 L239.5648,311.466667 L239.5648,276.283733 L251.451733,276.283733 L251.451733,271.684267 L222.5408,271.684267 L222.5408,276.283733 L234.427733,276.283733 L234.427733,311.466667 Z" fill="#3285B7"></path>
	</g>
</svg>
